packages/icon/src/svg/cloud-off.icon.svg

<svg width="24" height="24" viewBox="0 0 24 24" fill="none" xmlns="http://www.w3.org/2000/svg">
<path d="M19.35 10.04C18.67 6.59 15.64 4 12 4C10.52 4 9.15 4.43 7.99 5.17L9.45 6.63C10.21 6.23 11.08 6 12 6C15.04 6 17.5 8.46 17.5 11.5V12H19C20.66 12 22 13.34 22 15C22 16.13 21.36 17.11 20.44 17.62L21.89 19.07C23.16 18.16 24 16.68 24 15C24 12.36 21.95 10.22 19.35 10.04ZM3.1771 5.0929C3.07934 5.19066 3.07949 5.3492 3.17742 5.44678L5.75 8.01C2.56 8.15 0 10.77 0 14C0 17.31 2.69 20 6 20H17.73L19.5532 21.8232C19.6509 21.9209 19.8091 21.9209 19.9068 21.8232L20.8232 20.9068C20.9209 20.8091 20.9209 20.6509 20.8232 20.5532L4.44678 4.17678C4.34915 4.07915 4.19085 4.07915 4.09322 4.17678L3.1771 5.0929ZM7.73 10L15.73 18H6C3.79 18 2 16.21 2 14C2 11.79 3.79 10 6 10H7.73Z" fill="white"/>
</svg>

<svg aria-label="cloud off icon" viewBox="0 0 24 24"><path d="M19.35 10.04A7.49 7.49 0 0012 4c-1.48 0-2.85.43-4.01 1.17l1.46 1.46a5.497 5.497 0 018.05 4.87v.5H19c1.66 0 3 1.34 3 3 0 1.13-.64 2.11-1.56 2.62l1.45 1.45C23.16 18.16 24 16.68 24 15c0-2.64-2.05-4.78-4.65-4.96zM3.177 5.093a.25.25 0 000 .354L5.75 8.01C2.56 8.15 0 10.77 0 14c0 3.31 2.69 6 6 6h11.73l1.823 1.823a.25.25 0 00.354 0l.916-.916a.25.25 0 000-.354L4.447 4.177a.25.25 0 00-.354 0l-.916.916zM7.73 10l8 8H6c-2.21 0-4-1.79-4-4s1.79-4 4-4h1.73z"/></svg>
